static/img/briefcase.svg

<svg viewBox="0 0 100 100" xmlns="http://www.w3.org/2000/svg"><path d="m88.2 25.4v58.9a.9.9 0 0 1 -.9.9h-74.3a.9.9 0 0 1 -.8-.9v-58.9a.9.9 0 0 1 .8-.9h74.3a.9.9 0 0 1 .9.9z" fill="#fcd077"/><path d="m88.1 23.2h-24.7v-8.6a.9.9 0 0 0 -.9-.9h-25a.9.9 0 0 0 -.9.9v8.6h-24.7a.9.9 0 0 0 -.9.9v61.3a.9.9 0 0 0 .9.9h76.2a.9.9 0 0 0 .9-.9v-61.3a.9.9 0 0 0 -.9-.9zm-49.7-7.7h23.2v7.7h-23.2zm48.8 69h-74.4v-59.5h74.4z" fill="#171d2f"/></svg>

<svg data-name="Layer 1" xmlns="http://www.w3.org/2000/svg" viewBox="0 0 100 100"><path d="M88.2 25.4v58.9a.9.9 0 0 1-.9.9H13a.9.9 0 0 1-.8-.9V25.4a.9.9 0 0 1 .8-.9h74.3a.9.9 0 0 1 .9.9z" fill="#fcd077"/><path d="M88.1 23.2H63.4v-8.6a.9.9 0 0 0-.9-.9h-25a.9.9 0 0 0-.9.9v8.6H11.9a.9.9 0 0 0-.9.9v61.3a.9.9 0 0 0 .9.9h76.2a.9.9 0 0 0 .9-.9V24.1a.9.9 0 0 0-.9-.9zm-49.7-7.7h23.2v7.7H38.4zm48.8 69H12.8V25h74.4z" fill="#171d2f"/></svg>
